MODULE SheetformingTODAY_T_ROB1
VAR confdata conf := [0,0,0,0];
VAR syncident sync1;
VAR syncident sync2;
TASK PERS tasks all_tasks{2} := [["T_ROB1"], ["T_ROB2"]];
PERS tooldata HeatGun:=[TRUE,[[-31.632,-4.047,449.114],[-0.06241,0.76871,0.632,-0.07592]],[1,[0,0,102.905],[1,0,0,0],0,0,0]];
PERS tooldata NubTool:=[TRUE,[[1.88,-3.869,98.679],[0,0.70711,0.70711,0]],[1,[0,0,29.274],[1,0,0,0],0,0,0]];
TASK PERS wobjdata DefaultFrame:=[FALSE,TRUE,"",[[0,0,0],[1,0,0,0]],[[0,0,0],[1,0,0,0]]];
TASK PERS speeddata Speed000:=[100,180,5000,1080];
TASK PERS speeddata Speed001:=[10,180,5000,1080];
TASK PERS zonedata Zone000:=[FALSE,2,2,2,0.2,2,0.2];
TASK PERS zonedata Zone001:=[FALSE,2,2,2,0.2,2,0.2];
PROC Main()
ConfL \Off;
SyncMoveOn sync1, all_tasks;
MoveAbsJ [[0.9095,22.1795,-9.6004,-2.6416,66.5134,12.8732],[1054.4228,9E9,9E9,9E9,9E9,9E9]]\ID:=0,Speed000,Zone000,HeatGun;
MoveJ [[2640.462,1446.151,856.123],[1,0,0,0],[0,-2,0,0],[1054.4228,9E9,9E9,9E9,9E9,9E9]]\ID:=1,Speed000,Zone000,HeatGun \WObj:=DefaultFrame;
MoveJ [[2640.462,1446.151,856.123],[1,0,0,0],[0,-2,0,0],[1084.45,9E9,9E9,9E9,9E9,9E9]]\ID:=2,Speed000,Zone000,HeatGun \WObj:=DefaultFrame;
MoveJ [[2640.462,1446.151,856.123],[1,0,0,0],[0,-2,0,0],[1056.5674,9E9,9E9,9E9,9E9,9E9]]\ID:=3,Speed000,Zone000,HeatGun \WObj:=DefaultFrame;
MoveJ [[2640.462,1446.151,856.123],[1,0,0,0],[0,-2,0,0],[1078.0664,9E9,9E9,9E9,9E9,9E9]]\ID:=4,Speed000,Zone000,HeatGun \WObj:=DefaultFrame;
MoveJ [[2640.462,1446.151,856.123],[1,0,0,0],[0,-2,0,0],[1108.6209,9E9,9E9,9E9,9E9,9E9]]\ID:=5,Speed000,Zone000,HeatGun \WObj:=DefaultFrame;
MoveJ [[2640.462,1446.151,856.123],[1,0,0,0],[0,-2,0,0],[1129.1059,9E9,9E9,9E9,9E9,9E9]]\ID:=6,Speed000,Zone000,HeatGun \WObj:=DefaultFrame;
MoveJ [[2640.462,1446.151,856.123],[1,0,0,0],[0,-2,0,0],[1099.9307,9E9,9E9,9E9,9E9,9E9]]\ID:=7,Speed000,Zone000,HeatGun \WObj:=DefaultFrame;
MoveJ [[2640.462,1446.151,856.123],[1,0,0,0],[0,-2,0,0],[1068.9909,9E9,9E9,9E9,9E9,9E9]]\ID:=8,Speed000,Zone000,HeatGun \WObj:=DefaultFrame;
MoveJ [[2640.462,1446.151,856.123],[1,0,0,0],[0,-2,0,0],[1039.5945,9E9,9E9,9E9,9E9,9E9]]\ID:=9,Speed000,Zone000,HeatGun \WObj:=DefaultFrame;
MoveJ [[2640.462,1446.151,856.123],[1,0,0,0],[-2,-2,0,0],[1009.6196,9E9,9E9,9E9,9E9,9E9]]\ID:=10,Speed000,Zone000,HeatGun \WObj:=DefaultFrame;
MoveJ [[2640.462,1446.151,856.123],[1,0,0,0],[0,-2,0,0],[1025.5906,9E9,9E9,9E9,9E9,9E9]]\ID:=11,Speed000,Zone000,HeatGun \WObj:=DefaultFrame;
MoveJ [[2640.462,1446.151,856.123],[1,0,0,0],[0,-2,0,0],[1056.4436,9E9,9E9,9E9,9E9,9E9]]\ID:=12,Speed000,Zone000,HeatGun \WObj:=DefaultFrame;
MoveJ [[2640.462,1446.151,856.123],[1,0,0,0],[0,-2,0,0],[1087.4077,9E9,9E9,9E9,9E9,9E9]]\ID:=13,Speed000,Zone000,HeatGun \WObj:=DefaultFrame;
MoveJ [[2640.462,1446.151,856.123],[1,0,0,0],[0,-2,0,0],[1117.9002,9E9,9E9,9E9,9E9,9E9]]\ID:=14,Speed000,Zone000,HeatGun \WObj:=DefaultFrame;
MoveJ [[2640.462,1446.151,856.123],[1,0,0,0],[0,-2,0,0],[1146.9637,9E9,9E9,9E9,9E9,9E9]]\ID:=15,Speed000,Zone000,HeatGun \WObj:=DefaultFrame;
MoveJ [[2640.462,1446.151,856.123],[1,0,0,0],[0,-2,0,0],[1156.5765,9E9,9E9,9E9,9E9,9E9]]\ID:=16,Speed000,Zone000,HeatGun \WObj:=DefaultFrame;
MoveJ [[2640.462,1446.151,856.123],[1,0,0,0],[0,-2,0,0],[1127.3282,9E9,9E9,9E9,9E9,9E9]]\ID:=17,Speed000,Zone000,HeatGun \WObj:=DefaultFrame;
MoveJ [[2640.462,1446.151,856.123],[1,0,0,0],[0,-2,0,0],[1096.3744,9E9,9E9,9E9,9E9,9E9]]\ID:=18,Speed000,Zone000,HeatGun \WObj:=DefaultFrame;
MoveJ [[2640.462,1446.151,856.123],[1,0,0,0],[0,-2,0,0],[1065.5202,9E9,9E9,9E9,9E9,9E9]]\ID:=19,Speed000,Zone000,HeatGun \WObj:=DefaultFrame;
MoveJ [[2640.462,1446.151,856.123],[1,0,0,0],[0,-2,0,0],[1035.307,9E9,9E9,9E9,9E9,9E9]]\ID:=20,Speed000,Zone000,HeatGun \WObj:=DefaultFrame;
MoveJ [[2640.462,1446.151,856.123],[1,0,0,0],[-2,-2,0,0],[1008.0791,9E9,9E9,9E9,9E9,9E9]]\ID:=21,Speed000,Zone000,HeatGun \WObj:=DefaultFrame;
MoveJ [[2640.462,1446.151,856.123],[1,0,0,0],[-2,-2,0,0],[978.6595,9E9,9E9,9E9,9E9,9E9]]\ID:=22,Speed000,Zone000,HeatGun \WObj:=DefaultFrame;
MoveJ [[2640.462,1446.151,856.123],[1,0,0,0],[-2,-2,0,0],[994.3275,9E9,9E9,9E9,9E9,9E9]]\ID:=23,Speed000,Zone000,HeatGun \WObj:=DefaultFrame;
MoveJ [[2640.462,1446.151,856.123],[1,0,0,0],[-2,-2,0,0],[1024.6812,9E9,9E9,9E9,9E9,9E9]]\ID:=24,Speed000,Zone000,HeatGun \WObj:=DefaultFrame;
MoveJ [[2640.462,1446.151,856.123],[1,0,0,0],[0,-2,0,0],[1055.6352,9E9,9E9,9E9,9E9,9E9]]\ID:=25,Speed000,Zone000,HeatGun \WObj:=DefaultFrame;
MoveJ [[2640.462,1446.151,856.123],[1,0,0,0],[0,-2,0,0],[1086.585,9E9,9E9,9E9,9E9,9E9]]\ID:=26,Speed000,Zone000,HeatGun \WObj:=DefaultFrame;
MoveJ [[2640.462,1446.151,856.123],[1,0,0,0],[0,-2,0,0],[1117.2081,9E9,9E9,9E9,9E9,9E9]]\ID:=27,Speed000,Zone000,HeatGun \WObj:=DefaultFrame;
MoveJ [[2640.462,1446.151,856.123],[1,0,0,0],[0,-2,0,0],[1147.1008,9E9,9E9,9E9,9E9,9E9]]\ID:=28,Speed000,Zone000,HeatGun \WObj:=DefaultFrame;
MoveJ [[2640.462,1446.151,856.123],[1,0,0,0],[0,-2,0,0],[1175.1737,9E9,9E9,9E9,9E9,9E9]]\ID:=29,Speed000,Zone000,HeatGun \WObj:=DefaultFrame;
MoveJ [[2640.462,1446.151,856.123],[1,0,0,0],[0,-2,0,0],[1189.4758,9E9,9E9,9E9,9E9,9E9]]\ID:=30,Speed000,Zone000,HeatGun \WObj:=DefaultFrame;
MoveJ [[2640.462,1446.151,856.123],[1,0,0,0],[0,-2,0,0],[1163.8265,9E9,9E9,9E9,9E9,9E9]]\ID:=31,Speed000,Zone000,HeatGun \WObj:=DefaultFrame;
MoveJ [[2640.462,1446.151,856.123],[1,0,0,0],[0,-2,0,0],[1133.2948,9E9,9E9,9E9,9E9,9E9]]\ID:=32,Speed000,Zone000,HeatGun \WObj:=DefaultFrame;
MoveJ [[2640.462,1446.151,856.123],[1,0,0,0],[0,-2,0,0],[1102.3081,9E9,9E9,9E9,9E9,9E9]]\ID:=33,Speed000,Zone000,HeatGun \WObj:=DefaultFrame;
MoveJ [[2640.462,1446.151,856.123],[1,0,0,0],[0,-2,0,0],[1071.3969,9E9,9E9,9E9,9E9,9E9]]\ID:=34,Speed000,Zone000,HeatGun \WObj:=DefaultFrame;
MoveJ [[2640.462,1446.151,856.123],[1,0,0,0],[0,-2,0,0],[1040.8691,9E9,9E9,9E9,9E9,9E9]]\ID:=35,Speed000,Zone000,HeatGun \WObj:=DefaultFrame;
MoveJ [[2640.462,1446.151,856.123],[1,0,0,0],[-2,-2,0,0],[1011.1992,9E9,9E9,9E9,9E9,9E9]]\ID:=36,Speed000,Zone000,HeatGun \WObj:=DefaultFrame;
MoveJ [[2640.462,1446.151,856.123],[1,0,0,0],[-2,-2,0,0],[983.9696,9E9,9E9,9E9,9E9,9E9]]\ID:=37,Speed000,Zone000,HeatGun \WObj:=DefaultFrame;
MoveJ [[2640.462,1446.151,856.123],[1,0,0,0],[0,-2,0,0],[1054.4228,9E9,9E9,9E9,9E9,9E9]]\ID:=38,Speed000,Zone000,HeatGun \WObj:=DefaultFrame;
MoveJ [[2610.44,1438.425,856.123],[1,0,0,0],[-2,-2,0,0],[1054.4228,9E9,9E9,9E9,9E9,9E9]]\ID:=39,Speed000,Zone000,HeatGun \WObj:=DefaultFrame;
MoveJ [[2638.313,1451.994,856.123],[1,0,0,0],[0,-2,0,0],[1084.45,9E9,9E9,9E9,9E9,9E9]]\ID:=40,Speed000,Zone000,HeatGun \WObj:=DefaultFrame;
MoveJ [[2616.83,1429.644,856.123],[1,0,0,0],[0,-2,0,0],[1056.5674,9E9,9E9,9E9,9E9,9E9]]\ID:=41,Speed000,Zone000,HeatGun \WObj:=DefaultFrame;
MoveJ [[2586.272,1434.857,856.123],[1,0,0,0],[-2,-2,0,0],[1078.0664,9E9,9E9,9E9,9E9,9E9]]\ID:=42,Speed000,Zone000,HeatGun \WObj:=DefaultFrame;
MoveJ [[2565.769,1458.108,856.123],[1,0,0,0],[0,-2,0,0],[1108.6209,9E9,9E9,9E9,9E9,9E9]]\ID:=43,Speed000,Zone000,HeatGun \WObj:=DefaultFrame;
MoveJ [[2594.937,1468.609,856.123],[1,0,0,0],[0,-2,0,0],[1129.1059,9E9,9E9,9E9,9E9,9E9]]\ID:=44,Speed000,Zone000,HeatGun \WObj:=DefaultFrame;
MoveJ [[2625.878,1466.703,856.123],[1,0,0,0],[0,-2,0,0],[1099.9307,9E9,9E9,9E9,9E9,9E9]]\ID:=45,Speed000,Zone000,HeatGun \WObj:=DefaultFrame;
MoveJ [[2655.282,1456.884,856.123],[1,0,0,0],[0,-2,0,0],[1068.9909,9E9,9E9,9E9,9E9,9E9]]\ID:=46,Speed000,Zone000,HeatGun \WObj:=DefaultFrame;
MoveJ [[2685.263,1449.001,856.123],[1,0,0,0],[0,-2,0,0],[1039.5945,9E9,9E9,9E9,9E9,9E9]]\ID:=47,Speed000,Zone000,HeatGun \WObj:=DefaultFrame;
MoveJ [[2669.312,1422.42,856.123],[1,0,0,0],[0,-2,0,0],[1009.6196,9E9,9E9,9E9,9E9,9E9]]\ID:=48,Speed000,Zone000,HeatGun \WObj:=DefaultFrame;
MoveJ [[2638.461,1419.382,856.123],[1,0,0,0],[-2,-2,0,0],[1025.5906,9E9,9E9,9E9,9E9,9E9]]\ID:=49,Speed000,Zone000,HeatGun \WObj:=DefaultFrame;
MoveJ [[2607.496,1420.848,856.123],[1,0,0,0],[-2,-2,0,0],[1056.4436,9E9,9E9,9E9,9E9,9E9]]\ID:=50,Speed000,Zone000,HeatGun \WObj:=DefaultFrame;
MoveJ [[2576.999,1426.41,856.123],[1,0,0,0],[-2,-2,0,0],[1087.4077,9E9,9E9,9E9,9E9,9E9]]\ID:=51,Speed000,Zone000,HeatGun \WObj:=DefaultFrame;
MoveJ [[2547.927,1437.173,856.123],[1,0,0,0],[0,-2,0,0],[1117.9002,9E9,9E9,9E9,9E9,9E9]]\ID:=52,Speed000,Zone000,HeatGun \WObj:=DefaultFrame;
MoveJ [[2538.292,1466.637,856.123],[1,0,0,0],[0,-2,0,0],[1146.9637,9E9,9E9,9E9,9E9,9E9]]\ID:=53,Speed000,Zone000,HeatGun \WObj:=DefaultFrame;
MoveJ [[2567.533,1476.932,856.123],[1,0,0,0],[0,-2,0,0],[1156.5765,9E9,9E9,9E9,9E9,9E9]]\ID:=54,Speed000,Zone000,HeatGun \WObj:=DefaultFrame;
MoveJ [[2598.485,1478.646,856.123],[1,0,0,0],[0,-2,0,0],[1127.3282,9E9,9E9,9E9,9E9,9E9]]\ID:=55,Speed000,Zone000,HeatGun \WObj:=DefaultFrame;
MoveJ [[2629.342,1475.668,856.123],[1,0,0,0],[0,-2,0,0],[1096.3744,9E9,9E9,9E9,9E9,9E9]]\ID:=56,Speed000,Zone000,HeatGun \WObj:=DefaultFrame;
MoveJ [[2659.56,1468.751,856.123],[1,0,0,0],[0,-2,0,0],[1065.5202,9E9,9E9,9E9,9E9,9E9]]\ID:=57,Speed000,Zone000,HeatGun \WObj:=DefaultFrame;
MoveJ [[2686.8,1453.952,856.123],[1,0,0,0],[0,-2,0,0],[1035.307,9E9,9E9,9E9,9E9,9E9]]\ID:=58,Speed000,Zone000,HeatGun \WObj:=DefaultFrame;
MoveJ [[2716.227,1444.203,856.123],[1,0,0,0],[0,-2,0,0],[1008.0791,9E9,9E9,9E9,9E9,9E9]]\ID:=59,Speed000,Zone000,HeatGun \WObj:=DefaultFrame;
MoveJ [[2700.579,1417.442,856.123],[1,0,0,0],[0,-2,0,0],[978.6595,9E9,9E9,9E9,9E9,9E9]]\ID:=60,Speed000,Zone000,HeatGun \WObj:=DefaultFrame;
MoveJ [[2670.23,1411.122,856.123],[1,0,0,0],[-2,-2,0,0],[994.3275,9E9,9E9,9E9,9E9,9E9]]\ID:=61,Speed000,Zone000,HeatGun \WObj:=DefaultFrame;
MoveJ [[2639.277,1409.412,856.123],[1,0,0,0],[-2,-2,0,0],[1024.6812,9E9,9E9,9E9,9E9,9E9]]\ID:=62,Speed000,Zone000,HeatGun \WObj:=DefaultFrame;
MoveJ [[2608.326,1411.15,856.123],[1,0,0,0],[-2,-2,0,0],[1055.6352,9E9,9E9,9E9,9E9,9E9]]\ID:=63,Speed000,Zone000,HeatGun \WObj:=DefaultFrame;
MoveJ [[2577.699,1415.944,856.123],[1,0,0,0],[-2,-2,0,0],[1086.585,9E9,9E9,9E9,9E9,9E9]]\ID:=64,Speed000,Zone000,HeatGun \WObj:=DefaultFrame;
MoveJ [[2547.8,1424.133,856.123],[1,0,0,0],[-2,-2,0,0],[1117.2081,9E9,9E9,9E9,9E9,9E9]]\ID:=65,Speed000,Zone000,HeatGun \WObj:=DefaultFrame;
MoveJ [[2519.717,1437.261,856.123],[1,0,0,0],[0,-2,0,0],[1147.1008,9E9,9E9,9E9,9E9,9E9]]\ID:=66,Speed000,Zone000,HeatGun \WObj:=DefaultFrame;
MoveJ [[2505.394,1464.754,856.123],[1,0,0,0],[0,-2,0,0],[1175.1737,9E9,9E9,9E9,9E9,9E9]]\ID:=67,Speed000,Zone000,HeatGun \WObj:=DefaultFrame;
MoveJ [[2531.03,1482.183,856.123],[1,0,0,0],[0,-2,0,0],[1189.4758,9E9,9E9,9E9,9E9,9E9]]\ID:=68,Speed000,Zone000,HeatGun \WObj:=DefaultFrame;
MoveJ [[2561.558,1487.574,856.123],[1,0,0,0],[0,-2,0,0],[1163.8265,9E9,9E9,9E9,9E9,9E9]]\ID:=69,Speed000,Zone000,HeatGun \WObj:=DefaultFrame;
MoveJ [[2592.544,1488.502,856.123],[1,0,0,0],[0,-2,0,0],[1133.2948,9E9,9E9,9E9,9E9,9E9]]\ID:=70,Speed000,Zone000,HeatGun \WObj:=DefaultFrame;
MoveJ [[2623.457,1486.183,856.123],[1,0,0,0],[0,-2,0,0],[1102.3081,9E9,9E9,9E9,9E9,9E9]]\ID:=71,Speed000,Zone000,HeatGun \WObj:=DefaultFrame;
MoveJ [[2653.989,1480.817,856.123],[1,0,0,0],[0,-2,0,0],[1071.3969,9E9,9E9,9E9,9E9,9E9]]\ID:=72,Speed000,Zone000,HeatGun \WObj:=DefaultFrame;
MoveJ [[2683.666,1471.856,856.123],[1,0,0,0],[0,-2,0,0],[1040.8691,9E9,9E9,9E9,9E9,9E9]]\ID:=73,Speed000,Zone000,HeatGun \WObj:=DefaultFrame;
MoveJ [[2710.907,1457.06,856.123],[1,0,0,0],[0,-2,0,0],[1011.1992,9E9,9E9,9E9,9E9,9E9]]\ID:=74,Speed000,Zone000,HeatGun \WObj:=DefaultFrame;
MoveJ [[2710.907,1457.06,856.123],[1,0,0,0],[0,-2,0,0],[983.9696,9E9,9E9,9E9,9E9,9E9]]\ID:=75,Speed000,Zone000,HeatGun \WObj:=DefaultFrame;
SyncMoveOff sync2;
ENDPROC
ENDMODULE
MoveAbsJ [[0.9095,22.1795,-9.6004,-2.6416,66.5134,12.8732],[1054.4228,9E9,9E9,9E9,9E9,9E9]]\ID:=0,Speed000,Zone000,HeatGun;
MoveJ [[2640.462,1446.151,856.123],[1,0,0,0],[0,-2,0,0],[1054.4228,9E9,9E9,9E9,9E9,9E9]]\ID:=1,Speed000,Zone000,HeatGun \WObj:=DefaultFrame;
MoveJ [[2640.462,1446.151,856.123],[1,0,0,0],[0,-2,0,0],[1084.45,9E9,9E9,9E9,9E9,9E9]]\ID:=2,Speed000,Zone000,HeatGun \WObj:=DefaultFrame;
MoveJ [[2640.462,1446.151,856.123],[1,0,0,0],[0,-2,0,0],[1056.5674,9E9,9E9,9E9,9E9,9E9]]\ID:=3,Speed000,Zone000,HeatGun \WObj:=DefaultFrame;
MoveJ [[2640.462,1446.151,856.123],[1,0,0,0],[0,-2,0,0],[1078.0664,9E9,9E9,9E9,9E9,9E9]]\ID:=4,Speed000,Zone000,HeatGun \WObj:=DefaultFrame;
MoveJ [[2640.462,1446.151,856.123],[1,0,0,0],[0,-2,0,0],[1108.6209,9E9,9E9,9E9,9E9,9E9]]\ID:=5,Speed000,Zone000,HeatGun \WObj:=DefaultFrame;
MoveJ [[2640.462,1446.151,856.123],[1,0,0,0],[0,-2,0,0],[1129.1059,9E9,9E9,9E9,9E9,9E9]]\ID:=6,Speed000,Zone000,HeatGun \WObj:=DefaultFrame;
MoveJ [[2640.462,1446.151,856.123],[1,0,0,0],[0,-2,0,0],[1099.9307,9E9,9E9,9E9,9E9,9E9]]\ID:=7,Speed000,Zone000,HeatGun \WObj:=DefaultFrame;
MoveJ [[2640.462,1446.151,856.123],[1,0,0,0],[0,-2,0,0],[1068.9909,9E9,9E9,9E9,9E9,9E9]]\ID:=8,Speed000,Zone000,HeatGun \WObj:=DefaultFrame;
MoveJ [[2640.462,1446.151,856.123],[1,0,0,0],[0,-2,0,0],[1039.5945,9E9,9E9,9E9,9E9,9E9]]\ID:=9,Speed000,Zone000,HeatGun \WObj:=DefaultFrame;
MoveJ [[2640.462,1446.151,856.123],[1,0,0,0],[-2,-2,0,0],[1009.6196,9E9,9E9,9E9,9E9,9E9]]\ID:=10,Speed000,Zone000,HeatGun \WObj:=DefaultFrame;
MoveJ [[2640.462,1446.151,856.123],[1,0,0,0],[0,-2,0,0],[1025.5906,9E9,9E9,9E9,9E9,9E9]]\ID:=11,Speed000,Zone000,HeatGun \WObj:=DefaultFrame;
MoveJ [[2640.462,1446.151,856.123],[1,0,0,0],[0,-2,0,0],[1056.4436,9E9,9E9,9E9,9E9,9E9]]\ID:=12,Speed000,Zone000,HeatGun \WObj:=DefaultFrame;
MoveJ [[2640.462,1446.151,856.123],[1,0,0,0],[0,-2,0,0],[1087.4077,9E9,9E9,9E9,9E9,9E9]]\ID:=13,Speed000,Zone000,HeatGun \WObj:=DefaultFrame;
MoveJ [[2640.462,1446.151,856.123],[1,0,0,0],[0,-2,0,0],[1117.9002,9E9,9E9,9E9,9E9,9E9]]\ID:=14,Speed000,Zone000,HeatGun \WObj:=DefaultFrame;
MoveJ [[2640.462,1446.151,856.123],[1,0,0,0],[0,-2,0,0],[1146.9637,9E9,9E9,9E9,9E9,9E9]]\ID:=15,Speed000,Zone000,HeatGun \WObj:=DefaultFrame;
MoveJ [[2640.462,1446.151,856.123],[1,0,0,0],[0,-2,0,0],[1156.5765,9E9,9E9,9E9,9E9,9E9]]\ID:=16,Speed000,Zone000,HeatGun \WObj:=DefaultFrame;
MoveJ [[2640.462,1446.151,856.123],[1,0,0,0],[0,-2,0,0],[1127.3282,9E9,9E9,9E9,9E9,9E9]]\ID:=17,Speed000,Zone000,HeatGun \WObj:=DefaultFrame;
MoveJ [[2640.462,1446.151,856.123],[1,0,0,0],[0,-2,0,0],[1096.3744,9E9,9E9,9E9,9E9,9E9]]\ID:=18,Speed000,Zone000,HeatGun \WObj:=DefaultFrame;
MoveJ [[2640.462,1446.151,856.123],[1,0,0,0],[0,-2,0,0],[1065.5202,9E9,9E9,9E9,9E9,9E9]]\ID:=19,Speed000,Zone000,HeatGun \WObj:=DefaultFrame;
MoveJ [[2640.462,1446.151,856.123],[1,0,0,0],[0,-2,0,0],[1035.307,9E9,9E9,9E9,9E9,9E9]]\ID:=20,Speed000,Zone000,HeatGun \WObj:=DefaultFrame;
MoveJ [[2640.462,1446.151,856.123],[1,0,0,0],[-2,-2,0,0],[1008.0791,9E9,9E9,9E9,9E9,9E9]]\ID:=21,Speed000,Zone000,HeatGun \WObj:=DefaultFrame;
MoveJ [[2640.462,1446.151,856.123],[1,0,0,0],[-2,-2,0,0],[978.6595,9E9,9E9,9E9,9E9,9E9]]\ID:=22,Speed000,Zone000,HeatGun \WObj:=DefaultFrame;
MoveJ [[2640.462,1446.151,856.123],[1,0,0,0],[-2,-2,0,0],[994.3275,9E9,9E9,9E9,9E9,9E9]]\ID:=23,Speed000,Zone000,HeatGun \WObj:=DefaultFrame;
MoveJ [[2640.462,1446.151,856.123],[1,0,0,0],[-2,-2,0,0],[1024.6812,9E9,9E9,9E9,9E9,9E9]]\ID:=24,Speed000,Zone000,HeatGun \WObj:=DefaultFrame;
MoveJ [[2640.462,1446.151,856.123],[1,0,0,0],[0,-2,0,0],[1055.6352,9E9,9E9,9E9,9E9,9E9]]\ID:=25,Speed000,Zone000,HeatGun \WObj:=DefaultFrame;
MoveJ [[2640.462,1446.151,856.123],[1,0,0,0],[0,-2,0,0],[1086.585,9E9,9E9,9E9,9E9,9E9]]\ID:=26,Speed000,Zone000,HeatGun \WObj:=DefaultFrame;
MoveJ [[2640.462,1446.151,856.123],[1,0,0,0],[0,-2,0,0],[1117.2081,9E9,9E9,9E9,9E9,9E9]]\ID:=27,Speed000,Zone000,HeatGun \WObj:=DefaultFrame;
MoveJ [[2640.462,1446.151,856.123],[1,0,0,0],[0,-2,0,0],[1147.1008,9E9,9E9,9E9,9E9,9E9]]\ID:=28,Speed000,Zone000,HeatGun \WObj:=DefaultFrame;
MoveJ [[2640.462,1446.151,856.123],[1,0,0,0],[0,-2,0,0],[1175.1737,9E9,9E9,9E9,9E9,9E9]]\ID:=29,Speed000,Zone000,HeatGun \WObj:=DefaultFrame;
MoveJ [[2640.462,1446.151,856.123],[1,0,0,0],[0,-2,0,0],[1189.4758,9E9,9E9,9E9,9E9,9E9]]\ID:=30,Speed000,Zone000,HeatGun \WObj:=DefaultFrame;
MoveJ [[2640.462,1446.151,856.123],[1,0,0,0],[0,-2,0,0],[1163.8265,9E9,9E9,9E9,9E9,9E9]]\ID:=31,Speed000,Zone000,HeatGun \WObj:=DefaultFrame;
MoveJ [[2640.462,1446.151,856.123],[1,0,0,0],[0,-2,0,0],[1133.2948,9E9,9E9,9E9,9E9,9E9]]\ID:=32,Speed000,Zone000,HeatGun \WObj:=DefaultFrame;
MoveJ [[2640.462,1446.151,856.123],[1,0,0,0],[0,-2,0,0],[1102.3081,9E9,9E9,9E9,9E9,9E9]]\ID:=33,Speed000,Zone000,HeatGun \WObj:=DefaultFrame;
MoveJ [[2640.462,1446.151,856.123],[1,0,0,0],[0,-2,0,0],[1071.3969,9E9,9E9,9E9,9E9,9E9]]\ID:=34,Speed000,Zone000,HeatGun \WObj:=DefaultFrame;
MoveJ [[2640.462,1446.151,856.123],[1,0,0,0],[0,-2,0,0],[1040.8691,9E9,9E9,9E9,9E9,9E9]]\ID:=35,Speed000,Zone000,HeatGun \WObj:=DefaultFrame;
MoveJ [[2640.462,1446.151,856.123],[1,0,0,0],[-2,-2,0,0],[1011.1992,9E9,9E9,9E9,9E9,9E9]]\ID:=36,Speed000,Zone000,HeatGun \WObj:=DefaultFrame;
MoveJ [[2640.462,1446.151,856.123],[1,0,0,0],[-2,-2,0,0],[983.9696,9E9,9E9,9E9,9E9,9E9]]\ID:=37,Speed000,Zone000,HeatGun \WObj:=DefaultFrame;
MoveJ [[2640.462,1446.151,856.123],[1,0,0,0],[0,-2,0,0],[1054.4228,9E9,9E9,9E9,9E9,9E9]]\ID:=38,Speed000,Zone000,HeatGun \WObj:=DefaultFrame;
MoveJ [[2610.44,1438.425,856.123],[1,0,0,0],[-2,-2,0,0],[1054.4228,9E9,9E9,9E9,9E9,9E9]]\ID:=39,Speed000,Zone000,HeatGun \WObj:=DefaultFrame;
MoveJ [[2638.313,1451.994,856.123],[1,0,0,0],[0,-2,0,0],[1084.45,9E9,9E9,9E9,9E9,9E9]]\ID:=40,Speed000,Zone000,HeatGun \WObj:=DefaultFrame;
MoveJ [[2616.83,1429.644,856.123],[1,0,0,0],[0,-2,0,0],[1056.5674,9E9,9E9,9E9,9E9,9E9]]\ID:=41,Speed000,Zone000,HeatGun \WObj:=DefaultFrame;
MoveJ [[2586.272,1434.857,856.123],[1,0,0,0],[-2,-2,0,0],[1078.0664,9E9,9E9,9E9,9E9,9E9]]\ID:=42,Speed000,Zone000,HeatGun \WObj:=DefaultFrame;
MoveJ [[2565.769,1458.108,856.123],[1,0,0,0],[0,-2,0,0],[1108.6209,9E9,9E9,9E9,9E9,9E9]]\ID:=43,Speed000,Zone000,HeatGun \WObj:=DefaultFrame;
MoveJ [[2594.937,1468.609,856.123],[1,0,0,0],[0,-2,0,0],[1129.1059,9E9,9E9,9E9,9E9,9E9]]\ID:=44,Speed000,Zone000,HeatGun \WObj:=DefaultFrame;
MoveJ [[2625.878,1466.703,856.123],[1,0,0,0],[0,-2,0,0],[1099.9307,9E9,9E9,9E9,9E9,9E9]]\ID:=45,Speed000,Zone000,HeatGun \WObj:=DefaultFrame;
MoveJ [[2655.282,1456.884,856.123],[1,0,0,0],[0,-2,0,0],[1068.9909,9E9,9E9,9E9,9E9,9E9]]\ID:=46,Speed000,Zone000,HeatGun \WObj:=DefaultFrame;
MoveJ [[2685.263,1449.001,856.123],[1,0,0,0],[0,-2,0,0],[1039.5945,9E9,9E9,9E9,9E9,9E9]]\ID:=47,Speed000,Zone000,HeatGun \WObj:=DefaultFrame;
MoveJ [[2669.312,1422.42,856.123],[1,0,0,0],[0,-2,0,0],[1009.6196,9E9,9E9,9E9,9E9,9E9]]\ID:=48,Speed000,Zone000,HeatGun \WObj:=DefaultFrame;
MoveJ [[2638.461,1419.382,856.123],[1,0,0,0],[-2,-2,0,0],[1025.5906,9E9,9E9,9E9,9E9,9E9]]\ID:=49,Speed000,Zone000,HeatGun \WObj:=DefaultFrame;
MoveJ [[2607.496,1420.848,856.123],[1,0,0,0],[-2,-2,0,0],[1056.4436,9E9,9E9,9E9,9E9,9E9]]\ID:=50,Speed000,Zone000,HeatGun \WObj:=DefaultFrame;
MoveJ [[2576.999,1426.41,856.123],[1,0,0,0],[-2,-2,0,0],[1087.4077,9E9,9E9,9E9,9E9,9E9]]\ID:=51,Speed000,Zone000,HeatGun \WObj:=DefaultFrame;
MoveJ [[2547.927,1437.173,856.123],[1,0,0,0],[0,-2,0,0],[1117.9002,9E9,9E9,9E9,9E9,9E9]]\ID:=52,Speed000,Zone000,HeatGun \WObj:=DefaultFrame;
MoveJ [[2538.292,1466.637,856.123],[1,0,0,0],[0,-2,0,0],[1146.9637,9E9,9E9,9E9,9E9,9E9]]\ID:=53,Speed000,Zone000,HeatGun \WObj:=DefaultFrame;
MoveJ [[2567.533,1476.932,856.123],[1,0,0,0],[0,-2,0,0],[1156.5765,9E9,9E9,9E9,9E9,9E9]]\ID:=54,Speed000,Zone000,HeatGun \WObj:=DefaultFrame;
MoveJ [[2598.485,1478.646,856.123],[1,0,0,0],[0,-2,0,0],[1127.3282,9E9,9E9,9E9,9E9,9E9]]\ID:=55,Speed000,Zone000,HeatGun \WObj:=DefaultFrame;
MoveJ [[2629.342,1475.668,856.123],[1,0,0,0],[0,-2,0,0],[1096.3744,9E9,9E9,9E9,9E9,9E9]]\ID:=56,Speed000,Zone000,HeatGun \WObj:=DefaultFrame;
MoveJ [[2659.56,1468.751,856.123],[1,0,0,0],[0,-2,0,0],[1065.5202,9E9,9E9,9E9,9E9,9E9]]\ID:=57,Speed000,Zone000,HeatGun \WObj:=DefaultFrame;
MoveJ [[2686.8,1453.952,856.123],[1,0,0,0],[0,-2,0,0],[1035.307,9E9,9E9,9E9,9E9,9E9]]\ID:=58,Speed000,Zone000,HeatGun \WObj:=DefaultFrame;
MoveJ [[2716.227,1444.203,856.123],[1,0,0,0],[0,-2,0,0],[1008.0791,9E9,9E9,9E9,9E9,9E9]]\ID:=59,Speed000,Zone000,HeatGun \WObj:=DefaultFrame;
MoveJ [[2700.579,1417.442,856.123],[1,0,0,0],[0,-2,0,0],[978.6595,9E9,9E9,9E9,9E9,9E9]]\ID:=60,Speed000,Zone000,HeatGun \WObj:=DefaultFrame;
MoveJ [[2670.23,1411.122,856.123],[1,0,0,0],[-2,-2,0,0],[994.3275,9E9,9E9,9E9,9E9,9E9]]\ID:=61,Speed000,Zone000,HeatGun \WObj:=DefaultFrame;
MoveJ [[2639.277,1409.412,856.123],[1,0,0,0],[-2,-2,0,0],[1024.6812,9E9,9E9,9E9,9E9,9E9]]\ID:=62,Speed000,Zone000,HeatGun \WObj:=DefaultFrame;
MoveJ [[2608.326,1411.15,856.123],[1,0,0,0],[-2,-2,0,0],[1055.6352,9E9,9E9,9E9,9E9,9E9]]\ID:=63,Speed000,Zone000,HeatGun \WObj:=DefaultFrame;
MoveJ [[2577.699,1415.944,856.123],[1,0,0,0],[-2,-2,0,0],[1086.585,9E9,9E9,9E9,9E9,9E9]]\ID:=64,Speed000,Zone000,HeatGun \WObj:=DefaultFrame;
MoveJ [[2547.8,1424.133,856.123],[1,0,0,0],[-2,-2,0,0],[1117.2081,9E9,9E9,9E9,9E9,9E9]]\ID:=65,Speed000,Zone000,HeatGun \WObj:=DefaultFrame;
MoveJ [[2519.717,1437.261,856.123],[1,0,0,0],[0,-2,0,0],[1147.1008,9E9,9E9,9E9,9E9,9E9]]\ID:=66,Speed000,Zone000,HeatGun \WObj:=DefaultFrame;
MoveJ [[2505.394,1464.754,856.123],[1,0,0,0],[0,-2,0,0],[1175.1737,9E9,9E9,9E9,9E9,9E9]]\ID:=67,Speed000,Zone000,HeatGun \WObj:=DefaultFrame;
MoveJ [[2531.03,1482.183,856.123],[1,0,0,0],[0,-2,0,0],[1189.4758,9E9,9E9,9E9,9E9,9E9]]\ID:=68,Speed000,Zone000,HeatGun \WObj:=DefaultFrame;
MoveJ [[2561.558,1487.574,856.123],[1,0,0,0],[0,-2,0,0],[1163.8265,9E9,9E9,9E9,9E9,9E9]]\ID:=69,Speed000,Zone000,HeatGun \WObj:=DefaultFrame;
MoveJ [[2592.544,1488.502,856.123],[1,0,0,0],[0,-2,0,0],[1133.2948,9E9,9E9,9E9,9E9,9E9]]\ID:=70,Speed000,Zone000,HeatGun \WObj:=DefaultFrame;
MoveJ [[2623.457,1486.183,856.123],[1,0,0,0],[0,-2,0,0],[1102.3081,9E9,9E9,9E9,9E9,9E9]]\ID:=71,Speed000,Zone000,HeatGun \WObj:=DefaultFrame;
MoveJ [[2653.989,1480.817,856.123],[1,0,0,0],[0,-2,0,0],[1071.3969,9E9,9E9,9E9,9E9,9E9]]\ID:=72,Speed000,Zone000,HeatGun \WObj:=DefaultFrame;
MoveJ [[2683.666,1471.856,856.123],[1,0,0,0],[0,-2,0,0],[1040.8691,9E9,9E9,9E9,9E9,9E9]]\ID:=73,Speed000,Zone000,HeatGun \WObj:=DefaultFrame;
MoveJ [[2710.907,1457.06,856.123],[1,0,0,0],[0,-2,0,0],[1011.1992,9E9,9E9,9E9,9E9,9E9]]\ID:=74,Speed000,Zone000,HeatGun \WObj:=DefaultFrame;
MoveJ [[2710.907,1457.06,856.123],[1,0,0,0],[0,-2,0,0],[983.9696,9E9,9E9,9E9,9E9,9E9]]\ID:=75,Speed000,Zone000,HeatGun \WObj:=DefaultFrame;
SyncMoveOff sync2;
ENDPROC
ENDMODULE