MODULE SheetformingTODAY_T_ROB2
VAR confdata conf := [0,0,0,0];
VAR syncident sync1;
VAR syncident sync2;
TASK PERS tasks all_tasks{2} := [["T_ROB1"], ["T_ROB2"]];
PERS tooldata HeatGun:=[TRUE,[[-31.632,-4.047,449.114],[-0.06241,0.76871,0.632,-0.07592]],[1,[0,0,102.905],[1,0,0,0],0,0,0]];
PERS tooldata NubTool:=[TRUE,[[1.88,-3.869,98.679],[0,0.70711,0.70711,0]],[1,[0,0,29.274],[1,0,0,0],0,0,0]];
TASK PERS wobjdata DefaultFrame:=[FALSE,TRUE,"",[[0,0,0],[1,0,0,0]],[[0,0,0],[1,0,0,0]]];
TASK PERS speeddata Speed000:=[100,180,5000,1080];
TASK PERS speeddata Speed001:=[10,180,5000,1080];
TASK PERS zonedata Zone000:=[FALSE,2,2,2,0.2,2,0.2];
TASK PERS zonedata Zone001:=[FALSE,2,2,2,0.2,2,0.2];
PROC Main()
ConfL \Off;
SyncMoveOn sync1, all_tasks;
MoveAbsJ [[16,-24,9,32,-52,-158],[1555,9E9,9E9,9E9,9E9,9E9]]\ID:=0,Speed001,Zone001,NubTool;
MoveAbsJ [[16,-24,9,32,-52,-158],[1555,9E9,9E9,9E9,9E9,9E9]]\ID:=1,Speed001,Zone001,NubTool;
MoveAbsJ [[16,-24,9,32,-52,-158],[1555,9E9,9E9,9E9,9E9,9E9]]\ID:=2,Speed001,Zone001,NubTool;
MoveAbsJ [[16,-24,9,32,-52,-158],[1555,9E9,9E9,9E9,9E9,9E9]]\ID:=3,Speed001,Zone001,NubTool;
MoveAbsJ [[16,-24,9,32,-52,-158],[1555,9E9,9E9,9E9,9E9,9E9]]\ID:=4,Speed001,Zone001,NubTool;
MoveAbsJ [[16,-24,9,32,-52,-158],[1555,9E9,9E9,9E9,9E9,9E9]]\ID:=5,Speed001,Zone001,NubTool;
MoveAbsJ [[16,-24,9,32,-52,-158],[1555,9E9,9E9,9E9,9E9,9E9]]\ID:=6,Speed001,Zone001,NubTool;
MoveAbsJ [[16,-24,9,32,-52,-158],[1555,9E9,9E9,9E9,9E9,9E9]]\ID:=7,Speed001,Zone001,NubTool;
MoveAbsJ [[16,-24,9,32,-52,-158],[1555,9E9,9E9,9E9,9E9,9E9]]\ID:=8,Speed001,Zone001,NubTool;
MoveAbsJ [[16,-24,9,32,-52,-158],[1555,9E9,9E9,9E9,9E9,9E9]]\ID:=9,Speed001,Zone001,NubTool;
MoveAbsJ [[16,-24,9,32,-52,-158],[1555,9E9,9E9,9E9,9E9,9E9]]\ID:=10,Speed001,Zone001,NubTool;
MoveAbsJ [[16,-24,9,32,-52,-158],[1555,9E9,9E9,9E9,9E9,9E9]]\ID:=11,Speed001,Zone001,NubTool;
MoveAbsJ [[16,-24,9,32,-52,-158],[1555,9E9,9E9,9E9,9E9,9E9]]\ID:=12,Speed001,Zone001,NubTool;
MoveAbsJ [[16,-24,9,32,-52,-158],[1555,9E9,9E9,9E9,9E9,9E9]]\ID:=13,Speed001,Zone001,NubTool;
MoveAbsJ [[16,-24,9,32,-52,-158],[1555,9E9,9E9,9E9,9E9,9E9]]\ID:=14,Speed001,Zone001,NubTool;
MoveAbsJ [[16,-24,9,32,-52,-158],[1555,9E9,9E9,9E9,9E9,9E9]]\ID:=15,Speed001,Zone001,NubTool;
MoveAbsJ [[16,-24,9,32,-52,-158],[1555,9E9,9E9,9E9,9E9,9E9]]\ID:=16,Speed001,Zone001,NubTool;
MoveAbsJ [[16,-24,9,32,-52,-158],[1555,9E9,9E9,9E9,9E9,9E9]]\ID:=17,Speed001,Zone001,NubTool;
MoveAbsJ [[16,-24,9,32,-52,-158],[1555,9E9,9E9,9E9,9E9,9E9]]\ID:=18,Speed001,Zone001,NubTool;
MoveAbsJ [[16,-24,9,32,-52,-158],[1555,9E9,9E9,9E9,9E9,9E9]]\ID:=19,Speed001,Zone001,NubTool;
MoveAbsJ [[16,-24,9,32,-52,-158],[1555,9E9,9E9,9E9,9E9,9E9]]\ID:=20,Speed001,Zone001,NubTool;
MoveAbsJ [[16,-24,9,32,-52,-158],[1555,9E9,9E9,9E9,9E9,9E9]]\ID:=21,Speed001,Zone001,NubTool;
MoveAbsJ [[16,-24,9,32,-52,-158],[1555,9E9,9E9,9E9,9E9,9E9]]\ID:=22,Speed001,Zone001,NubTool;
MoveAbsJ [[16,-24,9,32,-52,-158],[1555,9E9,9E9,9E9,9E9,9E9]]\ID:=23,Speed001,Zone001,NubTool;
MoveAbsJ [[16,-24,9,32,-52,-158],[1555,9E9,9E9,9E9,9E9,9E9]]\ID:=24,Speed001,Zone001,NubTool;
MoveAbsJ [[16,-24,9,32,-52,-158],[1555,9E9,9E9,9E9,9E9,9E9]]\ID:=25,Speed001,Zone001,NubTool;
MoveAbsJ [[16,-24,9,32,-52,-158],[1555,9E9,9E9,9E9,9E9,9E9]]\ID:=26,Speed001,Zone001,NubTool;
MoveAbsJ [[16,-24,9,32,-52,-158],[1555,9E9,9E9,9E9,9E9,9E9]]\ID:=27,Speed001,Zone001,NubTool;
MoveAbsJ [[16,-24,9,32,-52,-158],[1555,9E9,9E9,9E9,9E9,9E9]]\ID:=28,Speed001,Zone001,NubTool;
MoveAbsJ [[16,-24,9,32,-52,-158],[1555,9E9,9E9,9E9,9E9,9E9]]\ID:=29,Speed001,Zone001,NubTool;
MoveAbsJ [[16,-24,9,32,-52,-158],[1555,9E9,9E9,9E9,9E9,9E9]]\ID:=30,Speed001,Zone001,NubTool;
MoveAbsJ [[16,-24,9,32,-52,-158],[1555,9E9,9E9,9E9,9E9,9E9]]\ID:=31,Speed001,Zone001,NubTool;
MoveAbsJ [[16,-24,9,32,-52,-158],[1555,9E9,9E9,9E9,9E9,9E9]]\ID:=32,Speed001,Zone001,NubTool;
MoveAbsJ [[16,-24,9,32,-52,-158],[1555,9E9,9E9,9E9,9E9,9E9]]\ID:=33,Speed001,Zone001,NubTool;
MoveAbsJ [[16,-24,9,32,-52,-158],[1555,9E9,9E9,9E9,9E9,9E9]]\ID:=34,Speed001,Zone001,NubTool;
MoveAbsJ [[16,-24,9,32,-52,-158],[1555,9E9,9E9,9E9,9E9,9E9]]\ID:=35,Speed001,Zone001,NubTool;
MoveAbsJ [[16,-24,9,32,-52,-158],[1555,9E9,9E9,9E9,9E9,9E9]]\ID:=36,Speed001,Zone001,NubTool;
MoveAbsJ [[16,-24,9,32,-52,-158],[1555,9E9,9E9,9E9,9E9,9E9]]\ID:=37,Speed001,Zone001,NubTool;
MoveAbsJ [[16,-24,9,32,-52,-158],[1555,9E9,9E9,9E9,9E9,9E9]]\ID:=38,Speed001,Zone001,NubTool;
MoveAbsJ [[16,-24,9,32,-52,-158],[1555,9E9,9E9,9E9,9E9,9E9]]\ID:=39,Speed001,Zone001,NubTool;
MoveAbsJ [[16,-24,9,32,-52,-158],[1555,9E9,9E9,9E9,9E9,9E9]]\ID:=40,Speed001,Zone001,NubTool;
MoveAbsJ [[16,-24,9,32,-52,-158],[1555,9E9,9E9,9E9,9E9,9E9]]\ID:=41,Speed001,Zone001,NubTool;
MoveAbsJ [[16,-24,9,32,-52,-158],[1555,9E9,9E9,9E9,9E9,9E9]]\ID:=42,Speed001,Zone001,NubTool;
MoveAbsJ [[16,-24,9,32,-52,-158],[1555,9E9,9E9,9E9,9E9,9E9]]\ID:=43,Speed001,Zone001,NubTool;
MoveAbsJ [[16,-24,9,32,-52,-158],[1555,9E9,9E9,9E9,9E9,9E9]]\ID:=44,Speed001,Zone001,NubTool;
MoveAbsJ [[16,-24,9,32,-52,-158],[1555,9E9,9E9,9E9,9E9,9E9]]\ID:=45,Speed001,Zone001,NubTool;
MoveAbsJ [[16,-24,9,32,-52,-158],[1555,9E9,9E9,9E9,9E9,9E9]]\ID:=46,Speed001,Zone001,NubTool;
MoveAbsJ [[16,-24,9,32,-52,-158],[1555,9E9,9E9,9E9,9E9,9E9]]\ID:=47,Speed001,Zone001,NubTool;
MoveAbsJ [[16,-24,9,32,-52,-158],[1555,9E9,9E9,9E9,9E9,9E9]]\ID:=48,Speed001,Zone001,NubTool;
MoveAbsJ [[16,-24,9,32,-52,-158],[1555,9E9,9E9,9E9,9E9,9E9]]\ID:=49,Speed001,Zone001,NubTool;
MoveAbsJ [[16,-24,9,32,-52,-158],[1555,9E9,9E9,9E9,9E9,9E9]]\ID:=50,Speed001,Zone001,NubTool;
MoveAbsJ [[16,-24,9,32,-52,-158],[1555,9E9,9E9,9E9,9E9,9E9]]\ID:=51,Speed001,Zone001,NubTool;
MoveAbsJ [[16,-24,9,32,-52,-158],[1555,9E9,9E9,9E9,9E9,9E9]]\ID:=52,Speed001,Zone001,NubTool;
MoveAbsJ [[16,-24,9,32,-52,-158],[1555,9E9,9E9,9E9,9E9,9E9]]\ID:=53,Speed001,Zone001,NubTool;
MoveAbsJ [[16,-24,9,32,-52,-158],[1555,9E9,9E9,9E9,9E9,9E9]]\ID:=54,Speed001,Zone001,NubTool;
MoveAbsJ [[16,-24,9,32,-52,-158],[1555,9E9,9E9,9E9,9E9,9E9]]\ID:=55,Speed001,Zone001,NubTool;
MoveAbsJ [[16,-24,9,32,-52,-158],[1555,9E9,9E9,9E9,9E9,9E9]]\ID:=56,Speed001,Zone001,NubTool;
MoveAbsJ [[16,-24,9,32,-52,-158],[1555,9E9,9E9,9E9,9E9,9E9]]\ID:=57,Speed001,Zone001,NubTool;
MoveAbsJ [[16,-24,9,32,-52,-158],[1555,9E9,9E9,9E9,9E9,9E9]]\ID:=58,Speed001,Zone001,NubTool;
MoveAbsJ [[16,-24,9,32,-52,-158],[1555,9E9,9E9,9E9,9E9,9E9]]\ID:=59,Speed001,Zone001,NubTool;
MoveAbsJ [[16,-24,9,32,-52,-158],[1555,9E9,9E9,9E9,9E9,9E9]]\ID:=60,Speed001,Zone001,NubTool;
MoveAbsJ [[16,-24,9,32,-52,-158],[1555,9E9,9E9,9E9,9E9,9E9]]\ID:=61,Speed001,Zone001,NubTool;
MoveAbsJ [[16,-24,9,32,-52,-158],[1555,9E9,9E9,9E9,9E9,9E9]]\ID:=62,Speed001,Zone001,NubTool;
MoveAbsJ [[16,-24,9,32,-52,-158],[1555,9E9,9E9,9E9,9E9,9E9]]\ID:=63,Speed001,Zone001,NubTool;
MoveAbsJ [[16,-24,9,32,-52,-158],[1555,9E9,9E9,9E9,9E9,9E9]]\ID:=64,Speed001,Zone001,NubTool;
MoveAbsJ [[16,-24,9,32,-52,-158],[1555,9E9,9E9,9E9,9E9,9E9]]\ID:=65,Speed001,Zone001,NubTool;
MoveAbsJ [[16,-24,9,32,-52,-158],[1555,9E9,9E9,9E9,9E9,9E9]]\ID:=66,Speed001,Zone001,NubTool;
MoveAbsJ [[16,-24,9,32,-52,-158],[1555,9E9,9E9,9E9,9E9,9E9]]\ID:=67,Speed001,Zone001,NubTool;
MoveAbsJ [[16,-24,9,32,-52,-158],[1555,9E9,9E9,9E9,9E9,9E9]]\ID:=68,Speed001,Zone001,NubTool;
MoveAbsJ [[16,-24,9,32,-52,-158],[1555,9E9,9E9,9E9,9E9,9E9]]\ID:=69,Speed001,Zone001,NubTool;
MoveAbsJ [[16,-24,9,32,-52,-158],[1555,9E9,9E9,9E9,9E9,9E9]]\ID:=70,Speed001,Zone001,NubTool;
MoveAbsJ [[16,-24,9,32,-52,-158],[1555,9E9,9E9,9E9,9E9,9E9]]\ID:=71,Speed001,Zone001,NubTool;
MoveAbsJ [[16,-24,9,32,-52,-158],[1555,9E9,9E9,9E9,9E9,9E9]]\ID:=72,Speed001,Zone001,NubTool;
MoveAbsJ [[16,-24,9,32,-52,-158],[1555,9E9,9E9,9E9,9E9,9E9]]\ID:=73,Speed001,Zone001,NubTool;
MoveAbsJ [[16,-24,9,32,-52,-158],[1555,9E9,9E9,9E9,9E9,9E9]]\ID:=74,Speed001,Zone001,NubTool;
MoveAbsJ [[16,-24,9,32,-52,-158],[1555,9E9,9E9,9E9,9E9,9E9]]\ID:=75,Speed001,Zone001,NubTool;
SyncMoveOff sync2;
ENDPROC
ENDMODULE
MoveAbsJ [[16,-24,9,32,-52,-158],[1555,9E9,9E9,9E9,9E9,9E9]]\ID:=0,Speed001,Zone001,NubTool;
MoveAbsJ [[16,-24,9,32,-52,-158],[1555,9E9,9E9,9E9,9E9,9E9]]\ID:=1,Speed001,Zone001,NubTool;
MoveAbsJ [[16,-24,9,32,-52,-158],[1555,9E9,9E9,9E9,9E9,9E9]]\ID:=2,Speed001,Zone001,NubTool;
MoveAbsJ [[16,-24,9,32,-52,-158],[1555,9E9,9E9,9E9,9E9,9E9]]\ID:=3,Speed001,Zone001,NubTool;
MoveAbsJ [[16,-24,9,32,-52,-158],[1555,9E9,9E9,9E9,9E9,9E9]]\ID:=4,Speed001,Zone001,NubTool;
MoveAbsJ [[16,-24,9,32,-52,-158],[1555,9E9,9E9,9E9,9E9,9E9]]\ID:=5,Speed001,Zone001,NubTool;
MoveAbsJ [[16,-24,9,32,-52,-158],[1555,9E9,9E9,9E9,9E9,9E9]]\ID:=6,Speed001,Zone001,NubTool;
MoveAbsJ [[16,-24,9,32,-52,-158],[1555,9E9,9E9,9E9,9E9,9E9]]\ID:=7,Speed001,Zone001,NubTool;
MoveAbsJ [[16,-24,9,32,-52,-158],[1555,9E9,9E9,9E9,9E9,9E9]]\ID:=8,Speed001,Zone001,NubTool;
MoveAbsJ [[16,-24,9,32,-52,-158],[1555,9E9,9E9,9E9,9E9,9E9]]\ID:=9,Speed001,Zone001,NubTool;
MoveAbsJ [[16,-24,9,32,-52,-158],[1555,9E9,9E9,9E9,9E9,9E9]]\ID:=10,Speed001,Zone001,NubTool;
MoveAbsJ [[16,-24,9,32,-52,-158],[1555,9E9,9E9,9E9,9E9,9E9]]\ID:=11,Speed001,Zone001,NubTool;
MoveAbsJ [[16,-24,9,32,-52,-158],[1555,9E9,9E9,9E9,9E9,9E9]]\ID:=12,Speed001,Zone001,NubTool;
MoveAbsJ [[16,-24,9,32,-52,-158],[1555,9E9,9E9,9E9,9E9,9E9]]\ID:=13,Speed001,Zone001,NubTool;
MoveAbsJ [[16,-24,9,32,-52,-158],[1555,9E9,9E9,9E9,9E9,9E9]]\ID:=14,Speed001,Zone001,NubTool;
MoveAbsJ [[16,-24,9,32,-52,-158],[1555,9E9,9E9,9E9,9E9,9E9]]\ID:=15,Speed001,Zone001,NubTool;
MoveAbsJ [[16,-24,9,32,-52,-158],[1555,9E9,9E9,9E9,9E9,9E9]]\ID:=16,Speed001,Zone001,NubTool;
MoveAbsJ [[16,-24,9,32,-52,-158],[1555,9E9,9E9,9E9,9E9,9E9]]\ID:=17,Speed001,Zone001,NubTool;
MoveAbsJ [[16,-24,9,32,-52,-158],[1555,9E9,9E9,9E9,9E9,9E9]]\ID:=18,Speed001,Zone001,NubTool;
MoveAbsJ [[16,-24,9,32,-52,-158],[1555,9E9,9E9,9E9,9E9,9E9]]\ID:=19,Speed001,Zone001,NubTool;
MoveAbsJ [[16,-24,9,32,-52,-158],[1555,9E9,9E9,9E9,9E9,9E9]]\ID:=20,Speed001,Zone001,NubTool;
MoveAbsJ [[16,-24,9,32,-52,-158],[1555,9E9,9E9,9E9,9E9,9E9]]\ID:=21,Speed001,Zone001,NubTool;
MoveAbsJ [[16,-24,9,32,-52,-158],[1555,9E9,9E9,9E9,9E9,9E9]]\ID:=22,Speed001,Zone001,NubTool;
MoveAbsJ [[16,-24,9,32,-52,-158],[1555,9E9,9E9,9E9,9E9,9E9]]\ID:=23,Speed001,Zone001,NubTool;
MoveAbsJ [[16,-24,9,32,-52,-158],[1555,9E9,9E9,9E9,9E9,9E9]]\ID:=24,Speed001,Zone001,NubTool;
MoveAbsJ [[16,-24,9,32,-52,-158],[1555,9E9,9E9,9E9,9E9,9E9]]\ID:=25,Speed001,Zone001,NubTool;
MoveAbsJ [[16,-24,9,32,-52,-158],[1555,9E9,9E9,9E9,9E9,9E9]]\ID:=26,Speed001,Zone001,NubTool;
MoveAbsJ [[16,-24,9,32,-52,-158],[1555,9E9,9E9,9E9,9E9,9E9]]\ID:=27,Speed001,Zone001,NubTool;
MoveAbsJ [[16,-24,9,32,-52,-158],[1555,9E9,9E9,9E9,9E9,9E9]]\ID:=28,Speed001,Zone001,NubTool;
MoveAbsJ [[16,-24,9,32,-52,-158],[1555,9E9,9E9,9E9,9E9,9E9]]\ID:=29,Speed001,Zone001,NubTool;
MoveAbsJ [[16,-24,9,32,-52,-158],[1555,9E9,9E9,9E9,9E9,9E9]]\ID:=30,Speed001,Zone001,NubTool;
MoveAbsJ [[16,-24,9,32,-52,-158],[1555,9E9,9E9,9E9,9E9,9E9]]\ID:=31,Speed001,Zone001,NubTool;
MoveAbsJ [[16,-24,9,32,-52,-158],[1555,9E9,9E9,9E9,9E9,9E9]]\ID:=32,Speed001,Zone001,NubTool;
MoveAbsJ [[16,-24,9,32,-52,-158],[1555,9E9,9E9,9E9,9E9,9E9]]\ID:=33,Speed001,Zone001,NubTool;
MoveAbsJ [[16,-24,9,32,-52,-158],[1555,9E9,9E9,9E9,9E9,9E9]]\ID:=34,Speed001,Zone001,NubTool;
MoveAbsJ [[16,-24,9,32,-52,-158],[1555,9E9,9E9,9E9,9E9,9E9]]\ID:=35,Speed001,Zone001,NubTool;
MoveAbsJ [[16,-24,9,32,-52,-158],[1555,9E9,9E9,9E9,9E9,9E9]]\ID:=36,Speed001,Zone001,NubTool;
MoveAbsJ [[16,-24,9,32,-52,-158],[1555,9E9,9E9,9E9,9E9,9E9]]\ID:=37,Speed001,Zone001,NubTool;
MoveAbsJ [[16,-24,9,32,-52,-158],[1555,9E9,9E9,9E9,9E9,9E9]]\ID:=38,Speed001,Zone001,NubTool;
MoveAbsJ [[16,-24,9,32,-52,-158],[1555,9E9,9E9,9E9,9E9,9E9]]\ID:=39,Speed001,Zone001,NubTool;
MoveAbsJ [[16,-24,9,32,-52,-158],[1555,9E9,9E9,9E9,9E9,9E9]]\ID:=40,Speed001,Zone001,NubTool;
MoveAbsJ [[16,-24,9,32,-52,-158],[1555,9E9,9E9,9E9,9E9,9E9]]\ID:=41,Speed001,Zone001,NubTool;
MoveAbsJ [[16,-24,9,32,-52,-158],[1555,9E9,9E9,9E9,9E9,9E9]]\ID:=42,Speed001,Zone001,NubTool;
MoveAbsJ [[16,-24,9,32,-52,-158],[1555,9E9,9E9,9E9,9E9,9E9]]\ID:=43,Speed001,Zone001,NubTool;
MoveAbsJ [[16,-24,9,32,-52,-158],[1555,9E9,9E9,9E9,9E9,9E9]]\ID:=44,Speed001,Zone001,NubTool;
MoveAbsJ [[16,-24,9,32,-52,-158],[1555,9E9,9E9,9E9,9E9,9E9]]\ID:=45,Speed001,Zone001,NubTool;
MoveAbsJ [[16,-24,9,32,-52,-158],[1555,9E9,9E9,9E9,9E9,9E9]]\ID:=46,Speed001,Zone001,NubTool;
MoveAbsJ [[16,-24,9,32,-52,-158],[1555,9E9,9E9,9E9,9E9,9E9]]\ID:=47,Speed001,Zone001,NubTool;
MoveAbsJ [[16,-24,9,32,-52,-158],[1555,9E9,9E9,9E9,9E9,9E9]]\ID:=48,Speed001,Zone001,NubTool;
MoveAbsJ [[16,-24,9,32,-52,-158],[1555,9E9,9E9,9E9,9E9,9E9]]\ID:=49,Speed001,Zone001,NubTool;
MoveAbsJ [[16,-24,9,32,-52,-158],[1555,9E9,9E9,9E9,9E9,9E9]]\ID:=50,Speed001,Zone001,NubTool;
MoveAbsJ [[16,-24,9,32,-52,-158],[1555,9E9,9E9,9E9,9E9,9E9]]\ID:=51,Speed001,Zone001,NubTool;
MoveAbsJ [[16,-24,9,32,-52,-158],[1555,9E9,9E9,9E9,9E9,9E9]]\ID:=52,Speed001,Zone001,NubTool;
MoveAbsJ [[16,-24,9,32,-52,-158],[1555,9E9,9E9,9E9,9E9,9E9]]\ID:=53,Speed001,Zone001,NubTool;
MoveAbsJ [[16,-24,9,32,-52,-158],[1555,9E9,9E9,9E9,9E9,9E9]]\ID:=54,Speed001,Zone001,NubTool;
MoveAbsJ [[16,-24,9,32,-52,-158],[1555,9E9,9E9,9E9,9E9,9E9]]\ID:=55,Speed001,Zone001,NubTool;
MoveAbsJ [[16,-24,9,32,-52,-158],[1555,9E9,9E9,9E9,9E9,9E9]]\ID:=56,Speed001,Zone001,NubTool;
MoveAbsJ [[16,-24,9,32,-52,-158],[1555,9E9,9E9,9E9,9E9,9E9]]\ID:=57,Speed001,Zone001,NubTool;
MoveAbsJ [[16,-24,9,32,-52,-158],[1555,9E9,9E9,9E9,9E9,9E9]]\ID:=58,Speed001,Zone001,NubTool;
MoveAbsJ [[16,-24,9,32,-52,-158],[1555,9E9,9E9,9E9,9E9,9E9]]\ID:=59,Speed001,Zone001,NubTool;
MoveAbsJ [[16,-24,9,32,-52,-158],[1555,9E9,9E9,9E9,9E9,9E9]]\ID:=60,Speed001,Zone001,NubTool;
MoveAbsJ [[16,-24,9,32,-52,-158],[1555,9E9,9E9,9E9,9E9,9E9]]\ID:=61,Speed001,Zone001,NubTool;
MoveAbsJ [[16,-24,9,32,-52,-158],[1555,9E9,9E9,9E9,9E9,9E9]]\ID:=62,Speed001,Zone001,NubTool;
MoveAbsJ [[16,-24,9,32,-52,-158],[1555,9E9,9E9,9E9,9E9,9E9]]\ID:=63,Speed001,Zone001,NubTool;
MoveAbsJ [[16,-24,9,32,-52,-158],[1555,9E9,9E9,9E9,9E9,9E9]]\ID:=64,Speed001,Zone001,NubTool;
MoveAbsJ [[16,-24,9,32,-52,-158],[1555,9E9,9E9,9E9,9E9,9E9]]\ID:=65,Speed001,Zone001,NubTool;
MoveAbsJ [[16,-24,9,32,-52,-158],[1555,9E9,9E9,9E9,9E9,9E9]]\ID:=66,Speed001,Zone001,NubTool;
MoveAbsJ [[16,-24,9,32,-52,-158],[1555,9E9,9E9,9E9,9E9,9E9]]\ID:=67,Speed001,Zone001,NubTool;
MoveAbsJ [[16,-24,9,32,-52,-158],[1555,9E9,9E9,9E9,9E9,9E9]]\ID:=68,Speed001,Zone001,NubTool;
MoveAbsJ [[16,-24,9,32,-52,-158],[1555,9E9,9E9,9E9,9E9,9E9]]\ID:=69,Speed001,Zone001,NubTool;
MoveAbsJ [[16,-24,9,32,-52,-158],[1555,9E9,9E9,9E9,9E9,9E9]]\ID:=70,Speed001,Zone001,NubTool;
MoveAbsJ [[16,-24,9,32,-52,-158],[1555,9E9,9E9,9E9,9E9,9E9]]\ID:=71,Speed001,Zone001,NubTool;
MoveAbsJ [[16,-24,9,32,-52,-158],[1555,9E9,9E9,9E9,9E9,9E9]]\ID:=72,Speed001,Zone001,NubTool;
MoveAbsJ [[16,-24,9,32,-52,-158],[1555,9E9,9E9,9E9,9E9,9E9]]\ID:=73,Speed001,Zone001,NubTool;
MoveAbsJ [[16,-24,9,32,-52,-158],[1555,9E9,9E9,9E9,9E9,9E9]]\ID:=74,Speed001,Zone001,NubTool;
MoveAbsJ [[16,-24,9,32,-52,-158],[1555,9E9,9E9,9E9,9E9,9E9]]\ID:=75,Speed001,Zone001,NubTool;
SyncMoveOff sync2;
ENDPROC
ENDMODULE